X:111
M:2/4
L:1/8
K:D
E | FF ED | d2 ed | cA AF | GB AG | 
g | af ge | fd e>A | B/c/d ef | g2 gf/g/ | 
af ge | fd ed | c/B/A Bc/B/ | A2 A :| 

